X:1
T:Les Heures
T:L'Heure Rose
T:1. L'Heure Rose
T:Augusta Mary Anne Holmès
T:Les Heures
T:(Holmès)
T: 
T:Note to Transcriber: This is what Elaine Gould says in her book "Behind Bars" (p.435): "Until well into the 20th century, a separate tail was used for each syllable in vocal music, and notes within a beat were only beamed to indicate that a syllable took more than one note. In syllabic setting, this notation makes all but the simplest rhythm difficult to read [...] Instrumental beaming (i.e. beaming into beats) is now used in vocal music together with syllablic slurs." For the OpenScore Lieder Corpus we are asked to follow the original unbeamed style for the vocal line. 
T:Creative Commons copyright waiver (CC0 1.0 Universal)
T:Creative Commons copyright waiver (CC0 1.0 Universal)
T:Creative Commons copyright waiver (CC0 1.0 Universal)
T:Creative Commons copyright waiver (CC0 1.0 Universal)
T:Creative Commons copyright waiver (CC0 1.0 Universal)
T:Creative Commons copyright waiver (CC0 1.0 Universal)
T:Creative Commons copyright waiver (CC0 1.0 Universal)
T:Creative Commons copyright waiver (CC0 1.0 Universal)
T:Creative Commons copyright waiver (CC0 1.0 Universal)
T:Creative Commons copyright waiver (CC0 1.0 Universal)
T:Creative Commons copyright waiver (CC0 1.0 Universal)
C:Augusta Mary Anne Holmès
Z:Augusta Mary Anne Holmès
Z:Creative Commons copyright waiver (CC0 1.0 Universal)
%%score ( 1 2 )
L:1/8
Q:3/8=80
M:6/8
K:D
V:1 treble nm="Chant\nVoice"
V:2 treble 
V:1
"^Allegretto" z6 | z6 | z6 | z6 | z6 | z6 | z6 | z6 | z6 | z6 | z6 | z6 | z6 | z6 | z6 | z6 | z6 | %17
w: |||||||||||||||||
 z6 | z6 | z6 | z6 | z6 |"^CHANT" d3 c2 (e | B3) A2 z | (F G A (F2 A,) | B,3 G3) | (G2 F E F G | %27
w: |||||C'est l'heu- re|ro- se|Où la ro- sée ar-|ro- se|Le ca- lice en- tr'ou-|
 A B c B2 A) | (A,3 B,2 F | E3-) E2 z | d3 c2 (e | B3 A2) z | (F G A (F2 A,) | B,3 G3) | %34
w: vert De la Ro- se,|Au cor- set|vert, _|L'heu- re du|son- ge|Dont le di- vin men-|son- ge|
 (G2 =F _E G _B | d c B (AFA,) | (4:3:4B,2) G2 F2 E2 | D3- D2 z ||[K:Bb] (D3- D ^C D | F3 E2) (E | %40
w: Sous ta pau- piè- re|d'or Se pro- lon- * *|\- ge, Trou- blant en-|cor! _|L'heu- * re bé-|ni- e Où|
 D2 D F2 _A | G3 F2) (F | (4:3:4d2 c2 (B2 =E2) | d) c B (FGB | (4:3:4!breath!E2) G2 C2 ^C2 | %45
w: l'âme à l'âme u-|ni- e, Re-|\- naît de sa lan-|gueur In- fi- ni- * *|\- e Sous l'aube en|
 D3- D2 z | A3- A F D | (!^!B3 =E) E E | !^!c3- c A ^F | (!^!d3 G2) z | %50
w: fleur.. _|L'heu- * re d'être|i- vre, Et d'ai-|mer _ et de|vi- vre,|
 (4:3:4!^!d2 !^!d2 !^!^c2 !^!d2 | !^!=e !^!d !^!A !^!^F !^!=E !^!D | !^!=B3- B2 ^c | !^!A3- A2 z || %54
w: L'heu- re du ré-|veil Qui nous li- vre Au|Dieu _ So-|leil! _|
[K:D] (d3 c2 (e | B3) A2) z | F G A- A F A, | (B,3 G2) z | (G2 F E F G | A) (B c B2 A) | %60
w: O mon dé-|li- re!|En- tends- tu _ cet- te|Ly- re|Ten- dre com- me ta|voix, Qui sou- pi- re|
 (A,3 B,2 F) | E3- E2 z | d3 c2 (e | B3) A2 z | F G A- A F A, | (B,3 G2) z | G =F _E G2 _B | %67
w: Au fond des|bois? _|C'est la Jeu-|\- nes- se|Qui nous hâte _ et nous|pres- se|Vers les sen- tiers fleu-|
 !breath!d c B (AFA,) | (4:3:5B, z G2 F2 E2 | D3- D2 z ||[K:F] z6 | z6 | z6 | z6 | z6 | z6 | z6 | %77
w: ris, O Maî- tres- * *|se, Du pa- ra-|\- dis! _||||||||
 z6 ||[K:D] (d3 c2 e | B3 A2) z | F G A- A F A, | (B,3 G2) z | B G B c2 A | d c B e2 B | %84
w: |C'est la Jeu-|nes- se|Qui nous hâte _ et nous|pres- se|Vers les sen- tiers fleu-|\- ris, O Maî- tres- se,|
 f3- f2 (^c | (e)d=A (4:3:4FEDA, | B,2) z G3 | F3- F2 E | D2 z z2 z | z6 | z6 | z6 | z6 | z6 | z6 | %95
w: O _ Maî-|tres- * * * * * *|\- se, Du|pa- * ra-|dis!|||||||
 z6 | z6 | z6 |] %98
w: |||
V:2
 x6 | x6 | x2 x"^(Ton original)" x2 x | x6 | x6 | x6 | x6 | x6 | x6 | x6 | x6 | x6 | x6 | x6 | x6 | %15
 x6 | x6 | x6 | x6 | x6 | x6 | x6 | x6 | x6 | x6 | x6 | x6 | x6 | x6 | x6 | x6 | x6 | x6 | x6 | %34
 x6 | x6 | x6 | x6 ||[K:Bb] x6 | x6 | x6 | x6 | x6 | x6 | x6 | x6 | x6 | x6 | x6 | x6 | x6 | x6 | %52
 x6 | x6 ||[K:D] x6 | x6 | x6 | x6 | x6 | x6 | x6 | x6 | x6 | x6 | x6 | x6 | x6 | x6 | x6 | x6 || %70
[K:F] x6 | x6 | x6 | x6 | x6 | x6 | x6 | x6 ||[K:D] x6 | x6 | x6 | x6 | x6 | x6 | x6 | x6 | x6 | %87
 x6 | x6 | x6 | x6 | x6 | x6 | x6 | x6 | x6 | x6 | x6 |] %98

